X: 25
T:J B Milne
% Nottingham Music Database
S:Ken McDouall, via EF
M:4/4
L:1/4
K:A
c/2d/2|"A"e/2f/2e/2d/2 cA|"A"EA c2|"A"c/2e/2d/2c/2 BA|"Bm"d3B/2c/2|\
"Bm"d/2e/2d/2c/2 BG|
"E"EG B2|"E7"B/2d/2c/2B/2 AB|"A"cB "E7"cd|"A"e/2f/2e/2d/2 cA|"A"EA c2|
"A"c/2e/2d/2c/2 BA|"D"f3f/2g/2|"D"a/2b/2a/2g/2 f/2a/2g/2f/2|\
"A"e/2d/2c/2d/2 eg/2f/2|
"E7"(3e/2f/2e/2d/2e/2 fg|"A"a2 cd|"A"ec fc|"A"ec fc|\
"A"(3e/2f/2e/2^d/2e/2 f/2e/2d/2c/2|
"Bm"d3B/2c/2|"E7"dB eB|"E7"dB eB|"E7"(3d/2e/2d/2c/2d/2 e/2d/2c/2B/2|\
"A"c3c/2d/2|
"A"ec fc|"A"ec fc|"A"(3a/2b/2a/2g/2a/2 b/2a/2g/2a/2|"D"f3f/2g/2|
"D"a/2b/2a/2g/2 f/2a/2g/2f/2|"A"e/2d/2c/2d/2 eg/2f/2|"E7"(3e/2f/2e/2d/2e/2 fg|\
"A"a3||<end>
<start>
